X:1
T:Hommage à S. Pickwick Esq. P. P. M. P. C.
T:Hommage à S. Pickwick Esq. P. P. M. P. C.
T:Préludes, Livre 2
T:Claude Debussy
C:Claude Debussy
%%score { ( 1 4 ) | ( 2 5 ) | ( 3 6 ) }
L:1/8
Q:1/4=60
M:3/4
K:F
V:1 treble nm="Piano" snm="Pno."
V:4 treble 
V:2 bass 
V:5 bass 
V:3 bass 
V:6 bass 
V:1
"^Grave" z6 | ([GBdg]4 [DGBd]2) | ([CEAc]2 [A,^CFA]2 [G,DFG]2 |"_m.d." C2 D>E F2) | %4
 z ([B,D]- [B,D]2 [A,^C]2) | (D2 A2) (A2 | [Dd]2) ([Dd]2 [Aa]2-) | %7
!f!!<(! ([Aa]2 !tenuto![dd']2 !tenuto![ee']2-)!<)! | %8
 [ee'] z z!p!"^Aimable"!>(! ([E^Gc] [^CFA][B,DF]!>)! |!<(! C2-)"^expressif" C>D D>G!<)! | %10
!p!!<(! C2- C>D D>G!<)! | %11
"_léger"!pp!"^Peu à peu animé"[Q:1/4=60] G2-[Q:1/4=60][Q:1/4=60][Q:1/4=61][Q:1/4=61]"^.5" G[Q:1/4=62][Q:1/4=62]"^.2" z[Q:1/4=62][Q:1/4=63] z2[Q:1/4=63][Q:1/4=63][Q:1/4=64] | %12
[Q:1/4=64]"^.4" (D/>[Q:1/4=65].C/)[Q:1/4=65]"^.2"(D/>[Q:1/4=65]"^.7".C/)[Q:1/4=65]"^.9" (D/>[Q:1/4=66]"^.5".C/)[Q:1/4=66]"^.7"(D/>[Q:1/4=67]"^.2".C/)[Q:1/4=67]"^.4"[I:staff +1] (B,/>[Q:1/4=68].A,/)[Q:1/4=68]"^.1"(G,/>[Q:1/4=68]"^.7".F,/) | %13
[Q:1/4=68]"^.9" (G,/>[Q:1/4=69]"^.4".F,/)[Q:1/4=69]"^.6"(G,/>[Q:1/4=70]"^.2".F,/)[Q:1/4=70]"^.4" (G,/>[Q:1/4=70]"^.9".F,/)[Q:1/4=71]"^.1"(G,/>[Q:1/4=71]"^.7".F,/)[Q:1/4=71]"^.9" (G,/>[Q:1/4=72]"^.4".A,/)[Q:1/4=72]"^.6"(B,/>[Q:1/4=73]"^.1".C/) | %14
[Q:1/4=73]"^.3"[I:staff -1] (G4[Q:1/4=73][Q:1/4=74][Q:1/4=74][Q:1/4=74][Q:1/4=75][Q:1/4=75][Q:1/4=76][Q:1/4=76]"^.3" F2[Q:1/4=76][Q:1/4=77][Q:1/4=77] | %15
[Q:1/4=77]"^.8" [B,C]6)[Q:1/4=78]"^.3"[Q:1/4=78]"^.5"[Q:1/4=79]"^.1"[Q:1/4=79]"^.3"[Q:1/4=79]"^.8"[Q:1/4=80][Q:1/4=80]"^.6"[Q:1/4=80]"^.7"[Q:1/4=81]"^.3"[Q:1/4=81]"^.5"[Q:1/4=82] | %16
[Q:1/4=82]"^.2" (G4[Q:1/4=82][Q:1/4=83][Q:1/4=83][Q:1/4=83][Q:1/4=84][Q:1/4=84][Q:1/4=85][Q:1/4=85]"^.2" F2[Q:1/4=85][Q:1/4=85][Q:1/4=86] | %17
[Q:1/4=86]"^.7" [B,C]6)[Q:1/4=87]"^.2"[Q:1/4=87]"^.4"[Q:1/4=88][Q:1/4=88]"^.1"[Q:1/4=88]"^.7"[Q:1/4=88]"^.9"[Q:1/4=89]"^.4"[Q:1/4=89]"^.6"[Q:1/4=90]"^.2"[Q:1/4=90]"^.4"[Q:1/4=90]"^.9" | %18
[Q:1/4=91]"^.1""_cresc. molto" (D/>[Q:1/4=91]"^.7".C/)[Q:1/4=91]"^.9"(D/>[Q:1/4=92]"^.4".E/)[Q:1/4=92]"^.6" ([DF]/>[Q:1/4=93]"^.1".[CE]/)[Q:1/4=93]"^.3"([DF]/>[Q:1/4=93]"^.9".[EG]/)[Q:1/4=94]"^.1" ([FA]/>[Q:1/4=94]"^.6".[EG]/)[Q:1/4=94]"^.8"([FA]/>[Q:1/4=95]"^.4".[G=B]/) | %19
[Q:1/4=95]"^.6" ([Ac]/>[Q:1/4=96]"^.1".[G=B]/)[Q:1/4=96]"^.3".[FA]/[Q:1/4=96]"^.7".[Ac]/[Q:1/4=97] ([df]/>[Q:1/4=97]"^.6".[ce]/)[Q:1/4=97]"^.8".[Bd]/[Q:1/4=98]"^.1".[df]/[Q:1/4=98]"^.5" ([fa]/>[Q:1/4=99]"^.1".[eg]/)[Q:1/4=99]"^.3".[df]/[Q:1/4=99]"^.6".[fa]/ | %20
[Q:1/4=80]"^Retenu\n"!f! !tenuto![cegc']4 !tenuto![Acea]2- | [Acea]2 !tenuto![G=Bdg]4- | %22
 [GBdg]2 z2 z2 | z2"_m.g." [cegc']2 z2 | [Acea]2 z2 [G=Bdg]2- |[Q:1/4=90]"^Mouvt" [GBdg]2 z2 z2 | %26
!p!!>(! !tenuto![FA]4!>)! z2 |!p!!>(! !tenuto![_EG]4!>)! z2 |!p!"_léger"!<(! ([FA]4!<)! .[FGd]2) | %29
!p!!<(! ([_EG]4!<)! .[EFc]2) | %30
"^Animez peu à peu"[Q:1/4=90] ([B,D]4[Q:1/4=90][Q:1/4=90][Q:1/4=90][Q:1/4=91][Q:1/4=91][Q:1/4=91][Q:1/4=91][Q:1/4=92] [CE]2[Q:1/4=92][Q:1/4=92][Q:1/4=92] | %31
[Q:1/4=93] [B,D]2[Q:1/4=93][Q:1/4=93][Q:1/4=93][Q:1/4=94] [CE]2[Q:1/4=94][Q:1/4=94][Q:1/4=94][Q:1/4=95] [DF]2)[Q:1/4=95][Q:1/4=95][Q:1/4=95] | %32
[Q:1/4=96] ([_EG]4[Q:1/4=96][Q:1/4=96][Q:1/4=96][Q:1/4=97][Q:1/4=97][Q:1/4=97][Q:1/4=97][Q:1/4=98] [FA]2[Q:1/4=98][Q:1/4=98][Q:1/4=98] | %33
[Q:1/4=99] [_EG]2[Q:1/4=99][Q:1/4=99][Q:1/4=99][Q:1/4=100] [FA]2[Q:1/4=100][Q:1/4=100][Q:1/4=100][Q:1/4=101] [GB]2)[Q:1/4=101][Q:1/4=101][Q:1/4=101] | %34
!p![Q:1/4=102]"_cresc. molto" ([_Ac]/>[Q:1/4=102]"^.4".[G=B]/)[Q:1/4=102]"^.5"([_Bd]/>[Q:1/4=102]"^.9".[Ac]/)[Q:1/4=103] ([Ac]/>[Q:1/4=103]"^.4".[G=B]/)[Q:1/4=103]"^.5"([_Bd]/>[Q:1/4=103]"^.9".[Ac]/)[Q:1/4=104] ([ce]/>[Q:1/4=104]"^.4".[=B_e]/)[Q:1/4=104]"^.5"([_df]/>[Q:1/4=104]"^.9".[c=e]/) | %35
[Q:1/4=105] ([_eg]/>[Q:1/4=105]"^.4".[d^f]/)[Q:1/4=105]"^.5"([=fa]/>[Q:1/4=105]"^.9".[e_a]/)[Q:1/4=106] ([_gb]/>[Q:1/4=106]"^.4".[f=a]/)[Q:1/4=106]"^.5"([_ac']/>[Q:1/4=106]"^.9".[=g=b]/)[Q:1/4=107] ([_bd']/>[Q:1/4=107]"^.4".[=a^c']/)[Q:1/4=107]"^.5"([=c'e']/>[Q:1/4=107]"^.9".[=b_e']/) | %36
!f![Q:1/4=108] ([_d'f']/>[Q:1/4=108]"^.4".[c'e']/)[Q:1/4=108]"^.5"([d'f']/>[Q:1/4=108]"^.9".[c'e']/)[Q:1/4=109] ([d'f']/>[Q:1/4=109]"^.4".[c'e']/)[Q:1/4=109]"^.5"([d'f']/>[Q:1/4=109]"^.9".[c'e']/)[Q:1/4=110] ([d'f']/>[Q:1/4=110]"^.4".[c'e']/)[Q:1/4=110]"^.5"([d'f']/>[Q:1/4=110]"^.9".[c'e']/) | %37
[Q:1/4=111] ([d'f']/>[Q:1/4=111]"^.4".[^c'e']/)[Q:1/4=111]"^.5"([d'f']/>[Q:1/4=111]"^.9".[c'e']/)[Q:1/4=112]!<(! ([d'f']/>[Q:1/4=112]"^.4".[c'e']/)[Q:1/4=112]"^.5"([d'f']/>[Q:1/4=112]"^.9".[c'e']/)[Q:1/4=113] ([d'f']/>[Q:1/4=113]"^.4".[c'e']/)[Q:1/4=113]"^.5"([d'f']/>[Q:1/4=113]"^.9".[c'e']/)!<)![Q:1/4=113]"^.3"[Q:1/4=113]"^.7" | %38
!f![Q:1/4=114] ([_d'f']/>[Q:1/4=114]"^.4".[c'e']/)[Q:1/4=114]"^.5"([d'f']/>[Q:1/4=114]"^.9".[c'e']/)[Q:1/4=115] ([d'f']/>[Q:1/4=115]"^.4".[c'e']/)[Q:1/4=115]"^.5"([d'f']/>[Q:1/4=115]"^.9".[c'e']/)[Q:1/4=116] ([d'f']/>[Q:1/4=116]"^.4".[c'e']/)[Q:1/4=116]"^.5"([d'f']/>[Q:1/4=116]"^.9".[c'e']/) | %39
!ff![Q:1/4=117]!<(! ([d'f']/>[Q:1/4=117]"^.4".[^c'e']/)[Q:1/4=117]"^.5"([d'f']/>[Q:1/4=117]"^.9".[c'e']/)[Q:1/4=118] ([d'f']/>[Q:1/4=118]"^.4".[c'e']/)[Q:1/4=118]"^.5"([d'f']/>[Q:1/4=118]"^.9".[c'e']/)[Q:1/4=119] ([d'f']/>[Q:1/4=119]"^.4".[c'e']/)[Q:1/4=119]"^.5"([d'f']/>[Q:1/4=119]"^.9".[^d'^f']/)!<)![Q:1/4=119]"^.3"[Q:1/4=119]"^.7" | %40
[Q:1/4=60]"^Mouvt" z2 z!p!!>(! ([E^Gc] [^CFA][B,DF]!>)! | C2-) (C>D) (D>G) | %42
[Q:1/4=60] C2-[Q:1/4=53]"^.3"!>(! (C>[Q:1/4=48]"^.3"D)[Q:1/4=46]"^.7" (D>[Q:1/4=41]"^.7"!breath!G)!>)![Q:1/4=56]"^.7" || %43
[Q:1/4=80]"^Même mouv\nt\n"!pp!"_lointain et léger" (3(a/d'/a/(3^f'/)z/(e'/ (3d'/)z/(=b/(3a/)z/^f/ (3(d/a/f/(3e/)z/(d/ | %44
 (3=B/)z/(A/(3B/)z/d/ (3(d/a/^f/(3e/)z/(d/ (3B/)z/(A/(3B/)z/d/ | %45
 (3z/!<(! (A/^F/(3E/)z/.D/!<)![I:staff +1] (!///-!B,2!>(! A,2)!>)!!p! | %46
!pp!!>(! (!///-!B,2 A,2)[I:staff -1] x2!>)! |[Q:1/4=60]"^Mouvt - retenu" z2 z!mf! C!<(! (D>G)!<)! | %48
!f! G6- | G2 C4 | x6 | x6 | z2 z2[Q:1/4=30] x2 |[Q:1/4=60]!p! [fac'f']6 |] %54
V:2
 x6 | x6 | x6 | x6 | z (E,/F,/ G,3 F,/E,/) |!p!"_cresc. molto" A,4 [=B,D]2- | [B,D]2 x4 | x6 | x6 | %9
"^m.d." (E,2 F,2 [G,B,]2) | (E,2 F,2 [G,B,]2) | B,2- B, z z2 |!<(! x6!<)! |!>(! x6!>)! | %14
"^m.d."!p!!<(! A,4 x2 | (G,/>.F,/)!<)!(G,/>!>(!.F,/) (G,/>.F,/)(G,/>.F,/) (G,/>.A,/)(B,/>.C/)!>)! | %16
!p! A,4 x2 |!<(! (G,/>.F,/)(G,/>.F,/) (G,/>.F,/)(G,/>.F,/) (G,/>.A,/)(B,/>.C/)!<)! | A, z z2 z2 | %19
 x6 |[K:treble]!f! z2 [EGc]2 z2 | [CEA]2 z2 [=B,DG]2- | %22
 [B,DG]2 z2[K:bass] z/4"_m.g."!<(! D,/4E,/4F,/4G,/4F,/4E,/4D,/4!<)! | %23
!ff! !tenuto![E,G,C]4 !tenuto![C,E,A,]2- | [C,E,A,]2 !tenuto![=B,,D,G,]4- | %25
 [B,,D,G,]2 z2 z (6:4:6z/4!pp!"_léger" G,/4A,/4=B,/4C/4D/4 | %26
 z2 z2 z (6:4:6z/4!pp! F,/4G,/4_A,/4B,/4C/4 | z2 z2 z (6:4:6z/4!pp! G,/4A,/4=B,/4C/4D/4 | %28
 x4 x (6:4:6z/4!pp! F,/4G,/4_A,/4B,/4C/4 | x4!>(! (B,/>.A,/)(G,/>.F,/)!>)! |!pp! x6 |!<(! x6!<)! | %32
!p! x6 |!<(! x6!<)! |[K:treble] (D/>._E/)(=E/>.F/) (D/>._E/)(=E/>.F/) (^F/>.G/)(^G/>.A/) | %35
 (A/>.B/)(=B/>.c/) (^c/>.d/)(^d/>.e/) (f/>.^f/)(g/>.^g/) | !tenuto!a2 !tenuto!a3 !tenuto!b | %37
 !tenuto!g4- (3(g!tenuto!a!tenuto!=b) | !tenuto!a2 !tenuto!a3 !tenuto!b | %39
 !tenuto!g4- (3(g!>!a!>!b) | x6 |[K:bass]"^m.d."!<(! (E,2 F,2 [G,B,]2)!<)! | %42
!>(! (E,2 F,2 [G,B,]2)!>)! || x6 | x6 | x6 | x6 | x6 |"^m.d." A,6- | A,2"_dim." x2 x2 | %50
 z2!mf!!<(! !tenuto![C,D,F,]4- | [C,D,F,]2- [C,D,F,] z!<)! z2 |[K:treble]!<(! !>![FA]4!<)!!ff! x2 | %53
 x6 |] %54
V:3
"_sonore"!f! !tenuto![F,,,F,,]2 !tenuto![F,,,F,,]2 !tenuto![G,,,G,,]2 | %1
 !tenuto![E,,,E,,]3 !tenuto![F,,,F,,] !tenuto![G,,,G,,]2 | %2
 !tenuto![A,,,A,,]2 !tenuto![A,,,A,,]2 !tenuto![B,,,B,,]2 | %3
 !tenuto![A,,,A,,]3 !tenuto![G,,,G,,] !tenuto![F,,,F,,]2 | %4
"^dim." ([A,,,A,,][G,,,G,,] [F,,,F,,]2 [E,,,E,,]2) | x4 [D,F,]2- | [D,F,]2 [F,A,C]4 | %7
 [A,DF]2- [A,DF] z z2 | z2 z (C A,F, | C,6) | C,6- | C,2- C, z z2 | .D.C .B,.A, .G,.F, | %13
 .E,.D, .C,.B,, .A,,.G,, | (C,4 ^C,2 | D,2 E,2 D,2) | (C,4 ^C,2 | D,2 ^D,2 E,2) | F, z z2 z2 | x6 | %20
 x2 [G,C]2 x2 | [E,A,]2 x2 [D,G,]2- | [D,G,]2 z2 z2 | [C,,G,,C,]4 [A,,,E,,A,,]2- | %24
 [A,,,E,,A,,]2 [G,,,D,,G,,]4- | [G,,,D,,G,,]2 z2 z2 | x6 | x6 | x6 | x6 | %30
 .[B,,F,].F,, .[B,,,F,,].B,, .[C,G,].G,, | .[B,,F,].F,, .[C,,G,,].C, .[D,A,].A,, | %32
 .[_E,B,].B,, .[_E,,B,,].E, .[F,C].C, | .[_E,B,].B,, .[F,,C,].F, .[G,D].[G,,D,] | x6 | x6 | x6 | %37
 x6 | x6 | x6 | z2 z (C A,F, | C,6) | C,6 || x6 | x6 | z2 .B,/ z/ z z2 | %46
 x4[I:staff -1] (6:4:6(B,/4A,/4[I:staff +1]G,/4F,/4E,/4D,/4 .C,/) z/ | x6 | [F,,C,]6- | %49
 [F,,C,]2 z2 z2 | (D,>C,) !tenuto![B,,,B,,]2 !tenuto![A,,,A,,]2 | %51
 !tenuto![G,,,G,,]2 !tenuto![B,,,B,,]2 z (6:4:6z/4!<(! G,/4A,/4B,/4C/4D/4!<)! | x4 [C,F,A,]2- | %53
!p! [C,F,A,]6 |] %54
V:4
 x6 | x6 | x6 |[I:staff +1] ([E,B,]2 [B,C]2 [A,C]2) | x6 | x6 | x2[I:staff -1] A4 | d4 x2 | x6 | %9
 B,4 x2 | B,4 x2 | %11
 (D/>"^.6".C/)"^.7"(D/>"^.3".C/) (D/>.C/)(D/>"^.8".C/) (D/>"^.5".C/)"^.7"(D/>"^.3".C/) | x6 | x6 | %14
 (D/>"^.9".C/)"^.1"(D/>"^.6".C/)"^.8" (D/>"^.4".C/)"^.6"(D/>"^.1".C/)[I:staff +1] (B,/>"^.9".A,/)(G,/>"^.6".F,/) | %15
 x6 | %16
[I:staff -1] (D/>"^.8".C/)(D/>"^.5".C/)"^.7" (D/>"^.3".C/)"^.4"(D/>.C/)[I:staff +1] (B,/>"^.7".A,/)"^.9"(G,/>"^.5".F,/) | %17
 x6 | x6 | x6 | x6 | x6 | x6 | x2[I:staff -1] [EG]2 x2 | [CE]2 x2 [=B,D]2- | [B,D]2 x4 | %26
 (E2 D2) x2 | (D2 C2) x2 | (E/>.D/)(E/>.D/) (E/>.D/)(E/>.D/)[I:staff +1] (C/>.=B,/) x | %29
[I:staff -1] (D/>.C/)(D/>.C/) (D/>.C/)(D/>.C/) x2 | %30
[I:staff +1] (G,/>"^.4".F,/)"^.5"(G,/>"^.9".F,/) (G,/>"^.4".F,/)"^.5"(G,/>"^.9".F,/) (A,/>"^.4".G,/)"^.5"(A,/>"^.9".G,/) | %31
 (G,/>"^.4".F,/)"^.5"(G,/>"^.9".F,/) (A,/>"^.4".G,/)"^.5"(A,/>"^.9".G,/) (B,/>"^.4".A,/)"^.5"(B,/>"^.9".A,/) | %32
 (C/>"^.4".B,/)"^.5"(C/>"^.9".B,/) (C/>"^.4".B,/)"^.5"(C/>"^.9".B,/) (D/>"^.4".C/)"^.5"(D/>"^.9".C/) | %33
 (C/>"^.4".B,/)"^.5"(C/>"^.9".B,/) (D/>"^.4".C/)"^.5"(D/>"^.9".C/) (_E/>"^.4".D/)"^.5"(E/>"^.9".D/) | %34
 x6 | x6 | x6 | x6 | x6 | x6 | x6 |[I:staff -1] B,4 x2 | B,4 x2 || x6 | x6 | x6 | x6 | x6 | %48
 (D>C) (D>C) (D>C) | (D>C)[I:staff +1] (B,>A,) (G,>F,) | x6 | x6 | x4[I:staff -1] [F-A-c-f]2 | %53
 [FAc]6 |] %54
V:5
 x6 | x6 | x6 | x6 | x6 | (D,2 A,2) A,2 | x6 | x6 | x6 | x6 | x6 | x6 | x6 | x6 | x6 | x6 | x6 | %17
 x6 | x6 | x6 |[K:treble] x6 | x6 | x4[K:bass] x2 | x6 | x6 | x6 | x6 | x6 | x6 | x6 | x6 | x6 | %32
 x6 | x6 |[K:treble] x6 | x6 | x6 | x6 | x6 | x6 | x6 |[K:bass] x6 | x6 || x6 | x6 | x6 | x6 | x6 | %48
 x6 | x6 | x6 | x6 |[K:treble] (E3 D C2-) | C6 |] %54
V:6
 x6 | x6 | x6 | x6 | x6 | [F,,,F,,]4 [G,,,G,,]2- | [G,,,G,,]2 [A,,,A,,]4 | %7
 [=B,,,=B,,]2- [B,,,B,,] x3 | x6 | (A,,G,, F,,2 E,,2) | (A,,G,, F,,2 E,,2-) | E,,2- E,, x3 | x6 | %13
 x6 | F,,6- | F,,6 | F,,6- | F,,6- | F,, x5 | x6 | !tenuto![C,,G,,C,]4 !tenuto![A,,,E,,A,,]2- | %21
 [A,,,E,,A,,]2 !tenuto![G,,,D,,G,,]4- | [G,,,D,,G,,]2 x4 | x6 | x6 | x6 | x6 | x6 | x6 | x6 | x6 | %31
 x6 | x6 | x6 | x6 | x6 | x6 | x6 | x6 | x6 | x6 | (A,,G,, F,,2 E,,2) | (A,,G,, F,,2 E,,2) || x6 | %44
 x6 | x6 | x6 | x6 | x6 | x6 | x6 | x4 !tenuto![D,,D,]2 | x6 | [F,,,C,,F,,]6 |] %54

